!!!!SEGMENT: pl-cz--iii-693--001-008_volckmer-augustin--litaniae-lauretanae-a-miserere-nobis.krn
!!!cenid: 18xx:1133
!!!COM: Volckmer, Augustin
!!!COM-rismID: pe30020656
!!!CDT: 1755-~1820
!!!CNT:
!!!OPR: Litaniae Lauretanae A
!!!OTL: Miserere nobis
!!!OMV: 008
!!!PDT:
!!!AGN: Sacred; Mass
!!!YEC: Copyright 2022 Narodowy Instytut Fryderyka Chopina (https://polishscores.org)
!!!YEM: License CC-BY-4.0 (https://creativecommons.org/licenses/by/4.0)
!!!SMS-siglum: PL-CZ
!!!SMS-shelfmark: III-693
!!!SMS-shelfwork: 001-008 M
!!!SMS-variant:
!!!SMS-altvar:
!!!NIFC-rismSourceID: 300001388
!!!NIFC-rismChildID: 300001388
!!!NIFC-islandoraID: pl-cz:40462
!!!URL-pdf-islandora: https://repozytorium.nifc.pl/islandora/object/pl-cz%3A40462/datastream/PDF/view
!!!URL-scan: https://polish.musicsources.pl/pl/lokalizacje/galeria/rekopisy/6990/1 @EN{Scan on Polish Music Sources Website} @PL{Skany w portalu Dziedzictwo Muzyki Polskiej w otwartym dostępie}
!!!IIIF:
!!!ONB-nifc: UWAGA: części Litanii: Kyrie, Mater christi, Virgo prudentissima, Rosa mystica, Salus infirmorum, Regina angelorum, Agnus Dei, Miserere nobis
!!!AIN: 1 alto 1 bass 1 clrno 2 cor 3 oboe 1 organ 1 soprn 1 tenor 1 timpa 2 viola 2 violn
!!!key: D
**kern	**fba	**dynam	**kern	**kern	**kern	**dynam	**kern	**dynam	**kern	**text	**kern	**text	**dynam	**kern	**text	**kern	**text	**kern	**dynam	**kern	**dynam	**kern	**kern	**dynam	**kern	**dynam	**kern	**dynam	**kern
*part16	*	*	*part15	*part14	*part13	*	*part12	*	*part11	*	*part10	*	*	*part9	*	*part8	*	*part7	*	*part6	*	*part5	*part4	*	*part3	*	*part2	*	*part1
*staff16	*	*	*staff15	*staff14	*staff13	*	*staff12	*	*staff11	*	*staff10	*	*	*staff9	*	*staff8	*	*staff7	*	*staff6	*	*staff5	*staff4	*	*staff3	*	*staff2	*	*staff1
*I"Organo.	*	*	*I"Viola obl:	*I"Viola. Solo.	*I"Violino Secondo	*	*I"Violino Primo.	*	*I"Basso	*	*I"Tenore	*	*	*I"Alto.	*	*I"Canto	*	*I"Tympano ex D.	*	*I"Clarino in D.	*	*I"Cornu Secondo in A	*I"Cornu Primo in Adur	*	*I"Oboe Secondo	*	*I"Oboe Primo	*	*I"Oboe Primo Solo
*I'org	*	*	*I'vla obl	*I'vla solo	*I'vl II	*	*I'vl I	*	*I'B	*	*I'T	*	*	*I'A	*	*I'S	*	*I'timp	*	*I'clno	*	*I'cor II	*I'cor I	*	*I'ob II	*	*I'ob I	*	*I'ob I solo
*ICklav	*	*	*ICstr	*ICstr	*ICstr	*	*ICstr	*	*ICvox	*	*ICvox	*	*	*ICvox	*	*ICvox	*	*ICidio	*	*ICbras	*	*ICbras	*ICbras	*	*ICww	*	*ICww	*	*ICww
*Iorgan	*	*	*Iviola	*Iviola	*Ivioln	*	*Ivioln	*	*Ibass	*	*Itenor	*	*	*Ialto	*	*Isoprn	*	*Itimpa	*	*Iclrno	*	*Icor	*Icor	*	*Ioboe	*	*Ioboe	*	*Ioboe
*clefF4	*	*	*clefC3	*clefC3	*clefG2	*	*clefG2	*	*clefF4	*	*clefC4	*	*	*clefC3	*	*clefC1	*	*clefF4	*	*clefG2	*	*clefG2	*clefG2	*	*clefG2	*	*clefG2	*	*clefG2
*	*	*	*	*	*	*	*	*	*	*	*	*	*	*	*	*	*	*	*	*ITrd-1c-2	*	*ITrd-1c-2	*ITrd-1c-2	*	*	*	*	*	*
*k[f#c#]	*	*	*k[f#c#]	*k[f#c#]	*k[f#c#]	*	*k[f#c#]	*	*k[f#c#]	*	*k[f#c#]	*	*	*k[f#c#]	*	*k[f#c#]	*	*k[f#c#]	*	*k[f#c#]	*	*k[f#c#]	*k[f#c#]	*	*k[f#c#]	*	*k[f#c#]	*	*k[f#c#]
*D:	*	*	*D:	*D:	*D:	*	*D:	*	*D:	*	*D:	*	*	*D:	*	*D:	*	*D:	*	*	*	*	*	*	*D:	*	*D:	*	*D:
*M3/4	*	*	*M3/4	*M3/4	*M3/4	*	*M3/4	*	*M3/4	*	*M3/4	*	*	*M3/4	*	*M3/4	*	*M3/4	*	*M3/4	*	*M3/4	*M3/4	*	*M3/4	*	*M3/4	*	*M3/4
=1	=1	=1	=1	=1	=1	=1	=1	=1	=1	=1	=1	=1	=1	=1	=1	=1	=1	=1	=1	=1	=1	=1	=1	=1	=1	=1	=1	=1	=1
!!LO:TX:t=P:problem: 4,8\left, right or middle	!	!	!	!	!	!	!	!	!	!	!	!	!	!	!	!	!	!	!	!	!	!	!	!	!	!	!	!
!!LO:TX:t=P:problem:błąd wyświetlania Verovio - tekst pokazany pod pięciolinią wiele razy lub pokazany nawet w głosach gdzie nie występuje spine dla tekstu	!	!	!	!	!	!	!	!	!	!	!	!	!	!	!	!	!	!	!	!	!	!	!	!	!	!	!	!
!	!	!	!	!	!	!	!	!	!	!	!	!	!	!	!	!	!	!LO:TX:t=P:problem:w kotłach nazwa instrumentu i brak znaków przykluczowych wskazują na transpozycję D, ale wysokości nut zapisane bez transpozycji	!	!	!	!	!	!	!	!	!	!	!
!LO:TX:t=P:problem: Dona nobis zapisana na czerwonym tuszem	!	!	!	!	!	!	!	!	!	!	!	!	!	!	!	!	!	!	!	!	!	!	!	!	!	!	!	!	!
!LO:TX:b:t=Dona nobis.	!	!	!	!LO:TX:b:t=[Tacet]	!	!	!	!	!	!	!	!	!	!	!	!LO:TX:t=P:problem:we wszystkich partiach oprócz Oboe Primo brak znaków przykluczowych (zanotowane zostały na początku poprzedniej części)	!	!	!	!LO:TX:t=P:problem:caudy ćwierćnut nieregularnie - prawo, środek: global	!	!	!LO:TX:t=P:problem:na początku systemu adnotacja Clarino in D.	!	!	!	!	!	!LO:TX:a:B:t=allo
!LO:TX:B:a:t=allo	!	!	!	!	!	!	!	!	!	!	!	!	!	!	!	!LO:TX:B:t=allo	!	!	!	!	!	!	!	!	!	!	!	!	!
!	!	!	!	!	!	!	!LO:TX:B:t=allo	!	!LO:TX:B:t=allo	!	!LO:TX:B:t=allo	!	!	!LO:TX:B:t=allo	!	!	!	!	!	!	!	!	!	!	!	!	!	!	!
!	!	!	!	!	!	!	!	!LO:DY:b:t=for	!	!	!	!	!	!	!	!	!	!	!	!	!	!	!	!	!	!	!	!	!
!	!	!	!	!	!	!	!LO:TX:t=P:problem: Dona nobis zapisana na czerwonym tuszem	!	!	!	!	!	!	!	!	!	!	!	!	!	!	!	!	!	!	!	!	!	!
!	!	!	!LO:TX:B:t=allo	!	!LO:TX:t=P:problem: Dona nobis zapisana na czerwonym tuszem	!	!LO:TX:b:t=Dona nobis.	!	!	!	!	!	!	!	!	!	!	!	!	!	!	!	!	!	!	!	!	!	!
!	!	!	!LO:TX:t=P:problem: Dona nobis zapisana na czerwonym tuszem	!	!LO:TX:b:t=Dona nobis.	!	!	!	!	!	!	!	!	!	!	!	!	!	!	!	!	!	!	!	!	!	!	!	!
!	!	!	!LO:TX:b:t=Dona nobis.	!	!LO:TX:B:t=allo	!	!	!	!	!	!	!	!	!	!	!	!	!	!	!	!	!	!	!	!	!	!	!	!
!	!	!	!	!	!	!	!	!	!	!	!	!	!	!	!	!	!	!	!	!	!	!	!	!	!	!	!LO:TX:a:t=Dona nobis.	!	!
!	!	!	!	!	!	!	!	!	!	!	!	!	!	!	!	!	!	!	!	!LO:TX:b:t=Dona nobis.	!	!	!LO:TX:B:a:t=allo	!	!LO:TX:t=P:problem: Dona nobis zapisana na czerwonym tuszem	!	!LO:TX:t=P:problem: Dona nobis zapisana na czerwonym tuszem	!	!
!	!	!	!	!	!	!	!	!	!	!	!	!	!	!	!	!	!	!LO:TX:t=P:problem: Dona nobis zapisana na czerwonym tuszem	!	!LO:TX:t=P:problem: Dona nobis zapisana na czerwonym tuszem	!	!	!LO:TX:t=P:problem: Dona nobis zapisana na czerwonym tuszem	!	!LO:TX:b:t=Dona nobis.	!	!	!LO:DY:b:t=for	!
!	!	!	!	!	!	!	!	!	!	!	!	!	!	!	!	!	!	!LO:TX:b:t=Dona nobis.	!LO:DY:b:t=for	!LO:TX:B:a:t=allo	!	!	!LO:TX:b:t=Dona nobis	!	!LO:TX:B:a:t=allo	!	!	!	!
4DD/ 4D	.	.	4A/ 4f#	2.ryy	4d/ 4a	.	4dd\	f	4r	.	4r	.	.	4r	.	4r	.	4D\	f	4d/	.	2.ryy	4dd\	.	4f#/	.	4dd\	f	2.ryy
!	!	!LO:DY:b:t=ffor	!	!	!	!	!	!	!	!	!	!	!	!	!	!	!	!	!	!	!	!	!	!	!	!	!	!	!
4r	.	ff	16d\LL	.	16d/LL	.	16d/LL	.	4D\	Mi-	4D/	Mi-	.	4d`\	Mi-	4d/	Mi-	4r	.	4r	.	.	4r	.	4r	.	4r	.	.
.	.	.	16d\	.	16d/	.	16d/	.	.	.	.	.	.	.	.	.	.	.	.	.	.	.	.	.	.	.	.	.	.
.	.	.	16d\	.	16d/	.	16d/	.	.	.	.	.	.	.	.	.	.	.	.	.	.	.	.	.	.	.	.	.	.
.	.	.	16d\JJ	.	16d/JJ	.	16d/JJ	.	.	.	.	.	.	.	.	.	.	.	.	.	.	.	.	.	.	.	.	.	.
*	*	*	*tremolo	*	*	*	*	*	*	*	*	*	*	*	*	*	*	*	*	*	*	*	*	*	*	*	*	*	*
*	*	*	*	*	*	*	*tremolo	*	*	*	*	*	*	*	*	*	*	*	*	*	*	*	*	*	*	*	*	*	*
4r	.	.	16f#\LL	.	16f#/LL	.	16f#/LL	.	4F#\	-se-	4F#/	-se-	.	4f#'\	-se-	4f#/	-se-	4r	.	4r	.	.	4r	.	4r	.	4r	.	.
.	.	.	16f#\	.	16f#/	.	16f#/	.	.	.	.	.	.	.	.	.	.	.	.	.	.	.	.	.	.	.	.	.	.
.	.	.	16f#\	.	16f#/	.	16f#/	.	.	.	.	.	.	.	.	.	.	.	.	.	.	.	.	.	.	.	.	.	.
.	.	.	16f#\JJ	.	16f#/JJ	.	16f#/JJ	.	.	.	.	.	.	.	.	.	.	.	.	.	.	.	.	.	.	.	.	.	.
!	!	!	!	!	!LO:LB:g=original	!	!	!	!	!	!	!	!	!	!	!	!	!	!	!	!	!	!	!	!	!	!	!	!
!	!	!	!	!	!	!	!	!	!	!	!	!	!	!	!	!	!	!	!	!	!	!	!	!	!LO:LB:g=original	!	!	!	!
=2	=2	=2	=2	=2	=2	=2	=2	=2	=2	=2	=2	=2	=2	=2	=2	=2	=2	=2	=2	=2	=2	=2	=2	=2	=2	=2	=2	=2	=2
*	*	*	*	*	*tremolo	*	*	*	*	*	*	*	*	*	*	*	*	*	*	*	*	*	*	*	*	*	*	*	*
!	!	!	!	!	!	!	!	!	!	!	!	!	!	!	!	!	!	!	!	!	!	!LO:TX:b:i:t=Tacet	!	!	!	!	!	!	!LO:TX:b:t=[Tacet]
4r	.	.	16a\LL	2.ryy	16a\LL	.	16a/LL	.	(4A\	-re-	4A\	-re-	.	(4a\	-re-	(4a\	-re-	2.r	.	2.r	.	2.ryy	2.r	.	4r	.	4r	.	2.ryy
.	.	.	16a\	.	16a\	.	16a/	.	.	.	.	.	.	.	.	.	.	.	.	.	.	.	.	.	.	.	.	.	.
.	.	.	16a\	.	16a\	.	16a/	.	.	.	.	.	.	.	.	.	.	.	.	.	.	.	.	.	.	.	.	.	.
.	.	.	16a\JJ	.	16a\JJ	.	16a/JJ	.	.	.	.	.	.	.	.	.	.	.	.	.	.	.	.	.	.	.	.	.	.
4r	.	.	16d\LL	.	16dd\LL	.	16dd\LL	.	4d\)	.	4d\	.	.	4dd\)	.	4dd\)	.	.	.	.	.	.	.	.	4r	.	4r	.	.
.	.	.	16d\	.	16dd\	.	16dd\	.	.	.	.	.	.	.	.	.	.	.	.	.	.	.	.	.	.	.	.	.	.
.	.	.	16d\	.	16dd\	.	16dd\	.	.	.	.	.	.	.	.	.	.	.	.	.	.	.	.	.	.	.	.	.	.
.	.	.	16d\JJ	.	16dd\JJ	.	16dd\JJ	.	.	.	.	.	.	.	.	.	.	.	.	.	.	.	.	.	.	.	.	.	.
4D\	.	.	16f#\LL	.	16ff#\LL	.	16ff#\LL	.	4F#\	-re	4f#\	-re	.	4dd\	-re	4ff#`\	-re	.	.	.	.	.	.	.	4dd\	.	4ff#`\	.	.
.	.	.	16f#\	.	16ff#\	.	16ff#\	.	.	.	.	.	.	.	.	.	.	.	.	.	.	.	.	.	.	.	.	.	.
.	.	.	16f#\	.	16ff#\	.	16ff#\	.	.	.	.	.	.	.	.	.	.	.	.	.	.	.	.	.	.	.	.	.	.
.	.	.	16f#\JJ	.	16ff#\JJ	.	16ff#\JJ	.	.	.	.	.	.	.	.	.	.	.	.	.	.	.	.	.	.	.	.	.	.
!	!	!	!	!	!	!	!	!	!LO:LB:g=original	!	!	!	!	!	!	!	!	!	!	!	!	!	!	!	!	!	!	!	!
!	!	!	!	!	!	!	!	!	!	!	!	!	!	!	!	!	!	!	!	!LO:LB:g=original	!	!	!	!	!	!	!	!	!
=3	=3	=3	=3	=3	=3	=3	=3	=3	=3	=3	=3	=3	=3	=3	=3	=3	=3	=3	=3	=3	=3	=3	=3	=3	=3	=3	=3	=3	=3
*	*	*	*2\right	*	*	*	*2\right	*2\right	*	*	*	*2\right	*	*	*	*	*2\right	*	*2\right	*	*	*	*	*	*2\right	*	*2\right	*	*
8C#/L	7 5	.	16e\ 16cc#LL	2.ryy	16a\ 16eeLL	.	16gg\LL	.	[2.A\	no-	[2.e\	no-	.	2.cc#\	no-	[2.gg\	no-	2.AA/	.	4a/	.	2.ryy	4ee\	.	2.ee\	.	2.gg\	.	2.ryy
.	.	.	16e\ 16cc#	.	16a\ 16ee	.	16gg\	.	.	.	.	.	.	.	.	.	.	.	.	.	.	.	.	.	.	.	.	.	.
8AA/	.	.	16e\ 16cc#	.	16a\ 16ee	.	16gg\	.	.	.	.	.	.	.	.	.	.	.	.	.	.	.	.	.	.	.	.	.	.
.	.	.	16e\ 16cc#JJ	.	16a\ 16eeJJ	.	16gg\	.	.	.	.	.	.	.	.	.	.	.	.	.	.	.	.	.	.	.	.	.	.
8C#/	.	.	16e\ 16cc#LL	.	16a\ 16eeLL	.	16gg\	.	.	.	.	.	.	.	.	.	.	.	.	8a/L	.	.	8ee\L	.	.	.	.	.	.
.	.	.	16e\ 16cc#	.	16a\ 16ee	.	16gg\	.	.	.	.	.	.	.	.	.	.	.	.	.	.	.	.	.	.	.	.	.	.
8AA/	.	.	16e\ 16cc#	.	16a\ 16ee	.	16gg\	.	.	.	.	.	.	.	.	.	.	.	.	8a/J	.	.	8ee\J	.	.	.	.	.	.
.	.	.	16e\ 16cc#	.	16a\ 16ee	.	16gg\JJ	.	.	.	.	.	.	.	.	.	.	.	.	.	.	.	.	.	.	.	.	.	.
8C#/	.	.	16e\ 16cc#	.	16a\ 16ee	.	16gg\LL	.	.	.	.	.	.	.	.	.	.	.	.	4a/	.	.	4ee\	.	.	.	.	.	.
.	.	.	16e\ 16cc#	.	16a\ 16ee	.	16gg\	.	.	.	.	.	.	.	.	.	.	.	.	.	.	.	.	.	.	.	.	.	.
8AA/J	.	.	16e\ 16cc#	.	16a\ 16ee	.	16gg\	.	.	.	.	.	.	.	.	.	.	.	.	.	.	.	.	.	.	.	.	.	.
.	.	.	16e\ 16cc#JJ	.	16a\ 16eeJJ	.	16gg\JJ	.	.	.	.	.	.	.	.	.	.	.	.	.	.	.	.	.	.	.	.	.	.
!LO:LB:g=original	!	!	!	!	!	!	!	!	!	!	!	!	!	!	!	!	!	!	!	!	!	!	!	!	!	!	!	!	!
=4	=4	=4	=4	=4	=4	=4	=4	=4	=4	=4	=4	=4	=4	=4	=4	=4	=4	=4	=4	=4	=4	=4	=4	=4	=4	=4	=4	=4	=4
*	*	*	*	*	*	*	*Xtremolo	*	*	*	*	*	*	*	*	*	*	*	*	*	*	*	*2\right	*	*	*	*	*	*
!	!	!	!	!	!	!	!LO:TUP:a:problem:klamra łukowa	!	!	!	!	!	!	!	!	!	!	!	!	!	!	!	!	!	!	!	!	!	!
!	!	!	!	!	!	!	!LO:TX:t=P:problem:kropka zamiast 3	!	!	!	!	!	!	!	!	!	!	!	!	!	!	!	!	!	!	!	!	!	!
!	!	!	!	!	!	!	!	!	!	!	!	!	!	!	!	!	!	!	!	!	!	!	!	!	!	!	!LO:TUP:a:problem:klamra łukowa	!	!
!	!	!	!	!	!	!	!	!	!	!	!	!	!	!	!	!	!	!	!	!	!	!	!	!	!	!	!LO:TX:t=P:problem: kropka zamiast 3	!	!
8C#/L	.	.	16e\ 16cc#LL	2.ryy	16a\ 16eeLL	.	12gg\L	.	2.A\]	.	2.e\]	.	.	2.cc#\	.	2.gg\]	.	4AA/	.	2a/	.	2.ryy	2ee\	.	2.ee\	.	12gg\L	.	2.ryy
.	.	.	16e\ 16cc#	.	16a\ 16ee	.	.	.	.	.	.	.	.	.	.	.	.	.	.	.	.	.	.	.	.	.	.	.	.
.	.	.	.	.	.	.	12ff#\	.	.	.	.	.	.	.	.	.	.	.	.	.	.	.	.	.	.	.	12ff#\	.	.
8AA/	.	.	16e\ 16cc#	.	16a\ 16ee	.	.	.	.	.	.	.	.	.	.	.	.	.	.	.	.	.	.	.	.	.	.	.	.
.	.	.	.	.	.	.	12gg\J	.	.	.	.	.	.	.	.	.	.	.	.	.	.	.	.	.	.	.	12gg\J	.	.
.	.	.	16e\ 16cc#	.	16a\ 16ee	.	.	.	.	.	.	.	.	.	.	.	.	.	.	.	.	.	.	.	.	.	.	.	.
8C#/	.	.	16e\ 16cc#	.	16a\ 16ee	.	8aa\L	.	.	.	.	.	.	.	.	.	.	4AA/	.	.	.	.	.	.	.	.	8aa\L	.	.
.	.	.	16e\ 16cc#	.	16a\ 16ee	.	.	.	.	.	.	.	.	.	.	.	.	.	.	.	.	.	.	.	.	.	.	.	.
8AA/	.	.	16e\ 16cc#	.	16a\ 16ee	.	8gg\	.	.	.	.	.	.	.	.	.	.	.	.	.	.	.	.	.	.	.	(8gg\	.	.
.	.	.	16e\ 16cc#	.	16a\ 16ee	.	.	.	.	.	.	.	.	.	.	.	.	.	.	.	.	.	.	.	.	.	.	.	.
8C#/	.	.	16e\ 16cc#	.	16a\ 16ee	.	8ff#\	.	.	.	.	.	.	.	.	.	.	4AA/	.	4a/	.	.	4ee\	.	.	.	8ff#\	.	.
.	.	.	16e\ 16cc#	.	16a\ 16ee	.	.	.	.	.	.	.	.	.	.	.	.	.	.	.	.	.	.	.	.	.	.	.	.
8AA/J	.	.	16e\ 16cc#	.	16a\ 16ee	.	8ee\J	.	.	.	.	.	.	.	.	.	.	.	.	.	.	.	.	.	.	.	8ee\J)	.	.
.	.	.	16e\ 16cc#JJ	.	16a\ 16eeJJ	.	.	.	.	.	.	.	.	.	.	.	.	.	.	.	.	.	.	.	.	.	.	.	.
!	!	!	!	!	!	!	!	!	!	!	!	!	!	!	!	!	!LO:LB:g=original	!	!	!	!	!	!	!	!	!	!	!	!
=5	=5	=5	=5	=5	=5	=5	=5	=5	=5	=5	=5	=5	=5	=5	=5	=5	=5	=5	=5	=5	=5	=5	=5	=5	=5	=5	=5	=5	=5
4DD/ 4D	.	.	4d\ 4a	2.ryy	4d\ 4dd	.	4d/ 4a 4ff#	.	4D\	-bis	4g\	-bis	.	4dd\	-bis	4ff#\	-bis	4D\	.	4dd\	.	2.ryy	4ff#\	.	4dd\	.	4ff#\	.	2.ryy
4r	.	.	16d\LL	.	16d/LL	.	16d/LL	.	4D\	mi-	4D/	mi-	.	4d`\	Mi-	4d/	mi-	4r	.	4r	.	.	4r	.	4r	.	4r	.	.
.	.	.	16d\	.	16d/	.	16d/	.	.	.	.	.	.	.	.	.	.	.	.	.	.	.	.	.	.	.	.	.	.
.	.	.	16d\	.	16d/	.	16d/	.	.	.	.	.	.	.	.	.	.	.	.	.	.	.	.	.	.	.	.	.	.
.	.	.	16d\JJ	.	16d/JJ	.	16d/JJ	.	.	.	.	.	.	.	.	.	.	.	.	.	.	.	.	.	.	.	.	.	.
*	*	*	*	*	*	*	*tremolo	*	*	*	*	*	*	*	*	*	*	*	*	*	*	*	*	*	*	*	*	*	*
4r	.	.	16f#\LL	.	16f#/LL	.	16f#/LL	.	4F#\	-se-	4F#/	-se-	.	4f#`\	-se-	4f#/	-se-	4r	.	4r	.	.	4r	.	4r	.	4r	.	.
.	.	.	16f#\	.	16f#/	.	16f#/	.	.	.	.	.	.	.	.	.	.	.	.	.	.	.	.	.	.	.	.	.	.
.	.	.	16f#\	.	16f#/	.	16f#/	.	.	.	.	.	.	.	.	.	.	.	.	.	.	.	.	.	.	.	.	.	.
.	.	.	16f#\JJ	.	16f#/JJ	.	16f#/JJ	.	.	.	.	.	.	.	.	.	.	.	.	.	.	.	.	.	.	.	.	.	.
!	!	!	!	!	!	!	!	!	!	!	!LO:LB:g=original	!	!	!LO:LB:g=original	!	!	!	!	!	!	!	!	!	!	!	!	!	!	!
=6	=6	=6	=6	=6	=6	=6	=6	=6	=6	=6	=6	=6	=6	=6	=6	=6	=6	=6	=6	=6	=6	=6	=6	=6	=6	=6	=6	=6	=6
4r	.	.	16a\LL	2.ryy	16a\LL	.	16a/LL	.	4A\	-re-	(4A\	-re-	.	2a\	-re-	(4a\	-re-	2.r	.	2.r	.	2.ryy	2.r	.	4r	.	4r	.	2.ryy
.	.	.	16a\	.	16a\	.	16a/	.	.	.	.	.	.	.	.	.	.	.	.	.	.	.	.	.	.	.	.	.	.
.	.	.	16a\	.	16a\	.	16a/	.	.	.	.	.	.	.	.	.	.	.	.	.	.	.	.	.	.	.	.	.	.
.	.	.	16a\JJ	.	16a\JJ	.	16a/JJ	.	.	.	.	.	.	.	.	.	.	.	.	.	.	.	.	.	.	.	.	.	.
4r	.	.	16dd\LL	.	16dd\LL	.	16dd\LL	.	4d\	-re	4d\)	.	.	.	.	4dd\)	.	.	.	.	.	.	.	.	4r	.	4r	.	.
.	.	.	16dd\	.	16dd\	.	16dd\	.	.	.	.	.	.	.	.	.	.	.	.	.	.	.	.	.	.	.	.	.	.
.	.	.	16dd\	.	16dd\	.	16dd\	.	.	.	.	.	.	.	.	.	.	.	.	.	.	.	.	.	.	.	.	.	.
.	.	.	16dd\JJ	.	16dd\JJ	.	16dd\JJ	.	.	.	.	.	.	.	.	.	.	.	.	.	.	.	.	.	.	.	.	.	.
4D\	.	.	16f#\LL	.	16ff#\LL	.	16ff#\LL	.	4F#\	.	4f#\	-re	.	4dd\	-re	4ff#`\	-re	.	.	.	.	.	.	.	4dd\	.	4ff#\	.	.
.	.	.	16f#\	.	16ff#\	.	16ff#\	.	.	.	.	.	.	.	.	.	.	.	.	.	.	.	.	.	.	.	.	.	.
.	.	.	16f#\	.	16ff#\	.	16ff#\	.	.	.	.	.	.	.	.	.	.	.	.	.	.	.	.	.	.	.	.	.	.
.	.	.	16f#\JJ	.	16ff#\JJ	.	16ff#\JJ	.	.	.	.	.	.	.	.	.	.	.	.	.	.	.	.	.	.	.	.	.	.
=7	=7	=7	=7	=7	=7	=7	=7	=7	=7	=7	=7	=7	=7	=7	=7	=7	=7	=7	=7	=7	=7	=7	=7	=7	=7	=7	=7	=7	=7
8C#/L	7 5	.	16e\ 16cc#LL	2.ryy	16a\ 16eeLL	.	16gg\LL	.	2.A\	no-	[2.e\	no-	.	[2.cc#\	no-	[2.gg\	no-	2.AA/	.	4a/	.	2.ryy	4ee\	.	2.ee\	.	2.gg\	.	2.ryy
.	.	.	16e\ 16cc#	.	16a\ 16ee	.	16gg\	.	.	.	.	.	.	.	.	.	.	.	.	.	.	.	.	.	.	.	.	.	.
8AA/	.	.	16e\ 16cc#	.	16a\ 16ee	.	16gg\	.	.	.	.	.	.	.	.	.	.	.	.	.	.	.	.	.	.	.	.	.	.
.	.	.	16e\ 16cc#	.	16a\ 16ee	.	16gg\	.	.	.	.	.	.	.	.	.	.	.	.	.	.	.	.	.	.	.	.	.	.
8C#/	.	.	16e\ 16cc#	.	16a\ 16ee	.	16gg\	.	.	.	.	.	.	.	.	.	.	.	.	8a/L	.	.	8ee\L	.	.	.	.	.	.
.	.	.	16e\ 16cc#	.	16a\ 16ee	.	16gg\	.	.	.	.	.	.	.	.	.	.	.	.	.	.	.	.	.	.	.	.	.	.
8AA/	.	.	16e\ 16cc#	.	16a\ 16ee	.	16gg\	.	.	.	.	.	.	.	.	.	.	.	.	8a/J	.	.	8ee\J	.	.	.	.	.	.
.	.	.	16e\ 16cc#	.	16a\ 16ee	.	16gg\JJ	.	.	.	.	.	.	.	.	.	.	.	.	.	.	.	.	.	.	.	.	.	.
8C#/	.	.	16e\ 16cc#	.	16a\ 16ee	.	16gg\LL	.	.	.	.	.	.	.	.	.	.	.	.	4a/	.	.	4ee\	.	.	.	.	.	.
.	.	.	16e\ 16cc#	.	16a\ 16ee	.	16gg\	.	.	.	.	.	.	.	.	.	.	.	.	.	.	.	.	.	.	.	.	.	.
8AA/J	.	.	16e\ 16cc#	.	16a\ 16ee	.	16gg\	.	.	.	.	.	.	.	.	.	.	.	.	.	.	.	.	.	.	.	.	.	.
.	.	.	16e\ 16cc#JJ	.	16a\ 16eeJJ	.	16gg\JJ	.	.	.	.	.	.	.	.	.	.	.	.	.	.	.	.	.	.	.	.	.	.
=8	=8	=8	=8	=8	=8	=8	=8	=8	=8	=8	=8	=8	=8	=8	=8	=8	=8	=8	=8	=8	=8	=8	=8	=8	=8	=8	=8	=8	=8
*	*	*	*	*	*	*	*Xtremolo	*	*	*	*	*	*	*	*	*	*	*	*	*	*	*	*	*	*	*	*	*	*
!	!	!	!	!	!	!	!LO:TX:t=P:problem: kropka zamiast 3	!	!	!	!	!	!	!	!	!	!	!	!	!	!	!	!	!	!	!	!	!	!
!	!	!	!	!	!	!	!LO:TUP:a:problem:klamra łukowa	!	!	!	!	!	!	!	!	!	!	!	!	!	!	!	!	!	!	!	!	!	!
!	!	!	!	!	!	!	!	!	!	!	!	!	!	!	!	!	!	!	!	!	!	!	!	!	!	!	!LO:TX:t=P:problem: kropka zamiast 3	!	!
!	!	!	!	!	!	!	!	!	!	!	!	!	!	!	!	!	!	!	!	!	!	!	!	!	!	!	!LO:TUP:a:problem:klamra łukowa	!	!
8C#/L	.	.	16e\ 16cc#LL	2.ryy	16a\ 16eeLL	.	12gg\L	.	2.A\	.	2.e\]	.	.	2.cc#\]	.	2.gg\]	.	4AA/	.	2a/	.	2.ryy	2ee\	.	2.ee\	.	12gg\L	.	2.ryy
.	.	.	16e\ 16cc#	.	16a\ 16ee	.	.	.	.	.	.	.	.	.	.	.	.	.	.	.	.	.	.	.	.	.	.	.	.
.	.	.	.	.	.	.	12ff#\	.	.	.	.	.	.	.	.	.	.	.	.	.	.	.	.	.	.	.	12ff#\	.	.
8AA/	.	.	16e\ 16cc#	.	16a\ 16ee	.	.	.	.	.	.	.	.	.	.	.	.	.	.	.	.	.	.	.	.	.	.	.	.
.	.	.	.	.	.	.	12gg\J	.	.	.	.	.	.	.	.	.	.	.	.	.	.	.	.	.	.	.	12gg\J	.	.
.	.	.	16e\ 16cc#	.	16a\ 16ee	.	.	.	.	.	.	.	.	.	.	.	.	.	.	.	.	.	.	.	.	.	.	.	.
8C#/	.	.	16e\ 16cc#	.	16a\ 16ee	.	(8aa\L	.	.	.	.	.	.	.	.	.	.	4AA/	.	.	.	.	.	.	.	.	8aa\L	.	.
.	.	.	16e\ 16cc#	.	16a\ 16ee	.	.	.	.	.	.	.	.	.	.	.	.	.	.	.	.	.	.	.	.	.	.	.	.
8AA/	.	.	16e\ 16cc#	.	16a\ 16ee	.	8gg\	.	.	.	.	.	.	.	.	.	.	.	.	.	.	.	.	.	.	.	8gg\	.	.
.	.	.	16e\ 16cc#	.	16a\ 16ee	.	.	.	.	.	.	.	.	.	.	.	.	.	.	.	.	.	.	.	.	.	.	.	.
8C#/	.	.	16e\ 16cc#	.	16a\ 16ee	.	8ff#\	.	.	.	.	.	.	.	.	.	.	4AA/	.	4a/	.	.	4ee\	.	.	.	8ff#\	.	.
.	.	.	16e\ 16cc#	.	16a\ 16ee	.	.	.	.	.	.	.	.	.	.	.	.	.	.	.	.	.	.	.	.	.	.	.	.
8AA/J	.	.	16e\ 16cc#	.	16a\ 16ee	.	8ee\J)	.	.	.	.	.	.	.	.	.	.	.	.	.	.	.	.	.	.	.	8ee\J	.	.
.	.	.	16e\ 16cc#JJ	.	16a\ 16eeJJ	.	.	.	.	.	.	.	.	.	.	.	.	.	.	.	.	.	.	.	.	.	.	.	.
*	*	*	*Xtremolo	*	*	*	*	*	*	*	*	*	*	*	*	*	*	*	*	*	*	*	*	*	*	*	*	*	*
!	!	!	!	!	!	!	!LO:LB:g=original	!	!	!	!	!	!	!	!	!	!	!	!	!	!	!	!	!	!	!	!	!	!
!	!	!	!	!	!	!	!	!	!	!	!	!	!	!	!	!	!	!LO:LB:g=original	!	!	!	!	!	!	!	!	!	!	!
=9	=9	=9	=9	=9	=9	=9	=9	=9	=9	=9	=9	=9	=9	=9	=9	=9	=9	=9	=9	=9	=9	=9	=9	=9	=9	=9	=9	=9	=9
*2\right	*	*	*	*	*	*	*	*	*	*	*	*	*	*	*	*	*	*	*	*	*	*	*	*	*	*	*	*	*
*tremolo	*	*	*	*	*	*	*	*	*	*	*	*	*	*	*	*	*	*	*	*	*	*	*	*	*	*	*	*	*
8D\L	.	.	8d\ 8a	2.ryy	(16a\LL	.	16ff#\LL	.	4d\	-bis	4d\	-bis	.	4a\	-bis	4ff#\	-bis	4D\	.	4dd\	.	2.ryy	4ff#\	.	2.dd\	.	2.ff#\	.	2.ryy
.	.	.	.	.	16ff#\	.	16ddd\	.	.	.	.	.	.	.	.	.	.	.	.	.	.	.	.	.	.	.	.	.	.
8D\	.	.	4d\ 4a	.	16a\	.	16ff#\	.	.	.	.	.	.	.	.	.	.	.	.	.	.	.	.	.	.	.	.	.	.
.	.	.	.	.	16ff#\	.	16ddd\JJ	.	.	.	.	.	.	.	.	.	.	.	.	.	.	.	.	.	.	.	.	.	.
*	*	*	*	*	*	*	*tremolo	*	*	*	*	*	*	*	*	*	*	*	*	*	*	*	*	*	*	*	*	*	*
8D\	.	.	.	.	16a\	.	16ff#\LL	.	4d\	mi-	4d\	mi-	.	4a\	Mi-	4ff#\	mi-	4r	.	4dd\	.	.	4ff#\	.	.	.	.	.	.
.	.	.	.	.	16ff#\	.	16ddd\	.	.	.	.	.	.	.	.	.	.	.	.	.	.	.	.	.	.	.	.	.	.
8D\	.	.	4d\ 4a	.	16a\	.	16ff#\	.	.	.	.	.	.	.	.	.	.	.	.	.	.	.	.	.	.	.	.	.	.
.	.	.	.	.	16ff#\	.	16ddd\	.	.	.	.	.	.	.	.	.	.	.	.	.	.	.	.	.	.	.	.	.	.
8D\	.	.	.	.	16a\	.	16ff#\	.	4d\	-se-	4d\	-se-	.	4a\	-se-	4ff#\	-se-	4r	.	8dd\L	.	.	8ff#\L	.	.	.	.	.	.
.	.	.	.	.	16ff#\	.	16ddd\	.	.	.	.	.	.	.	.	.	.	.	.	.	.	.	.	.	.	.	.	.	.
8D\J	.	.	8d\ 8a	.	16a\	.	16ff#\	.	.	.	.	.	.	.	.	.	.	.	.	8dd\J	.	.	8ff#\J	.	.	.	.	.	.
.	.	.	.	.	16ff#\JJ)	.	16ddd\JJ	.	.	.	.	.	.	.	.	.	.	.	.	.	.	.	.	.	.	.	.	.	.
*	*	*	*	*	*	*	*	*	*	*	*	*	*	*	*	*	*	*	*	*	*	*	*	*	*	*	*	*	*
!	!	!	!LO:LB:g=original	!	!	!	!	!	!	!	!	!	!	!	!	!	!	!	!	!	!	!	!	!	!	!	!	!	!
=10	=10	=10	=10	=10	=10	=10	=10	=10	=10	=10	=10	=10	=10	=10	=10	=10	=10	=10	=10	=10	=10	=10	=10	=10	=10	=10	=10	=10	=10
8BB/L	.	.	8d\ 8b	2.ryy	(16dd\LL	.	16ff#\LL	.	2B\	-re-	2d\	-re-	.	2a\	-re	2ff#\	-re-	4D\	.	4dd\	.	2.ryy	4ff#\	.	2.dd\	.	2.ff#\	.	2.ryy
.	.	.	.	.	16ff#\	.	16ddd\	.	.	.	.	.	.	.	.	.	.	.	.	.	.	.	.	.	.	.	.	.	.
8BB/	.	.	4d\ 4b	.	16dd\	.	16ff#\	.	.	.	.	.	.	.	.	.	.	.	.	.	.	.	.	.	.	.	.	.	.
.	.	.	.	.	16ff#\	.	16ddd\	.	.	.	.	.	.	.	.	.	.	.	.	.	.	.	.	.	.	.	.	.	.
8BB/	.	.	.	.	16dd\	.	16ff#\	.	.	.	.	.	.	.	.	.	.	4r	.	4r	.	.	4r	.	.	.	.	.	.
.	.	.	.	.	16ff#\	.	16ddd\	.	.	.	.	.	.	.	.	.	.	.	.	.	.	.	.	.	.	.	.	.	.
8BB/	.	.	4d\ 4b	.	16dd\	.	16ff#\	.	.	.	.	.	.	.	.	.	.	.	.	.	.	.	.	.	.	.	.	.	.
.	.	.	.	.	16ff#\	.	16ddd\	.	.	.	.	.	.	.	.	.	.	.	.	.	.	.	.	.	.	.	.	.	.
8BB/	.	.	.	.	16dd\	.	16ff#\	.	4B\	-re	4d\	-re	.	4a\	.	4ff#\	-re	4r	.	4dd\	.	.	4ff#\	.	.	.	.	.	.
.	.	.	.	.	16ff#\	.	16ddd\	.	.	.	.	.	.	.	.	.	.	.	.	.	.	.	.	.	.	.	.	.	.
8BB/J	.	.	8d\ 8b	.	16dd\	.	16ff#\	.	.	.	.	.	.	.	.	.	.	.	.	.	.	.	.	.	.	.	.	.	.
.	.	.	.	.	16ff#\JJ)	.	16ddd\JJ	.	.	.	.	.	.	.	.	.	.	.	.	.	.	.	.	.	.	.	.	.	.
!	!	!	!	!	!	!	!	!	!	!	!	!	!	!	!	!LO:LB:g=original	!	!	!	!	!	!	!	!	!	!	!	!	!
!	!	!	!	!	!	!	!	!	!	!	!	!	!	!	!	!	!	!	!	!	!	!	!	!	!	!	!LO:LB:g=original	!	!
=11	=11	=11	=11	=11	=11	=11	=11	=11	=11	=11	=11	=11	=11	=11	=11	=11	=11	=11	=11	=11	=11	=11	=11	=11	=11	=11	=11	=11	=11
*Xtremolo	*	*	*	*	*	*	*Xtremolo	*	*	*	*	*	*	*	*	*	*	*	*	*	*	*	*	*	*	*	*	*	*
8GG/L	.	.	8b\	2.ryy	16gg\LL	.	16eee\LL	.	4G\	no-	4e\	no-	.	4b\	no-	4gg\	no-	4r	.	4ee\	.	2.ryy	4gg\	.	4ee\	.	4gg\	.	2.ryy
.	.	.	.	.	16gg\	.	16eee\	.	.	.	.	.	.	.	.	.	.	.	.	.	.	.	.	.	.	.	.	.	.
8GG/	.	.	4b\	.	16gg\	.	16eee\	.	.	.	.	.	.	.	.	.	.	.	.	.	.	.	.	.	.	.	.	.	.
.	.	.	.	.	16gg\JJ	.	16eee\JJ	.	.	.	.	.	.	.	.	.	.	.	.	.	.	.	.	.	.	.	.	.	.
*	*	*	*	*	*	*	*tremolo	*	*	*	*	*	*	*	*	*	*	*	*	*	*	*	*	*	*	*	*	*	*
8AA/	.	.	.	.	16ff#\LL	.	16ddd\LL	.	4A\	.	(4d\	.	.	2a\	.	(4ff#\	.	4AA/	.	4dd\	.	.	4ff#\	.	4dd\	.	4ff#\	.	.
.	.	.	.	.	16ff#\	.	16ddd\	.	.	.	.	.	.	.	.	.	.	.	.	.	.	.	.	.	.	.	.	.	.
8AA/	.	.	4a\	.	16ff#\	.	16ddd\	.	.	.	.	.	.	.	.	.	.	.	.	.	.	.	.	.	.	.	.	.	.
.	.	.	.	.	16ff#\JJ	.	16ddd\JJ	.	.	.	.	.	.	.	.	.	.	.	.	.	.	.	.	.	.	.	.	.	.
8AA/	.	.	.	.	16ee\LL	.	16ccc#\LL	.	4AA/	.	4c#\)	.	.	.	.	4ee\)	.	4AA/	.	4a/	.	.	4ee\	.	4cc#\	.	4ee\	.	.
.	.	.	.	.	16ee\	.	16ccc#\	.	.	.	.	.	.	.	.	.	.	.	.	.	.	.	.	.	.	.	.	.	.
8AA/J	.	.	8a\	.	16ee\	.	16ccc#\	.	.	.	.	.	.	.	.	.	.	.	.	.	.	.	.	.	.	.	.	.	.
.	.	.	.	.	16ee\JJ	.	16ccc#\JJ	.	.	.	.	.	.	.	.	.	.	.	.	.	.	.	.	.	.	.	.	.	.
=12	=12	=12	=12	=12	=12	=12	=12	=12	=12	=12	=12	=12	=12	=12	=12	=12	=12	=12	=12	=12	=12	=12	=12	=12	=12	=12	=12	=12	=12
*tremolo	*	*	*	*	*	*	*	*	*	*	*	*	*	*	*	*	*	*	*	*	*	*	*	*	*	*	*	*	*
!	!	!	!	!	!	!	!	!LO:DY:b:t=po	!	!	!	!	!	!	!	!	!	!	!	!	!	!	!	!	!	!	!	!	!
!	!	!	!	!	!	!	!	!	!	!	!	!	!LO:DY:a	!	!	!	!	!	!	!	!	!	!	!	!	!	!	!	!
!	!	!	!	!	!	!	!	!	!	!	!	!	!LO:DY:t=po.	!	!	!	!	!	!	!	!	!	!	!	!	!	!	!	!
!	!	!	!	!	!	!	!	!	!	!	!	!	!	!	!	!	!	!	!	!	!	!	!	!	!	!	!	!LO:DY:b:t=po	!
!	!	!	!	!	!	!	!	!	!	!	!	!	!	!	!	!	!	!	!	!	!	!	!	!LO:DY:b:t=po	!	!LO:DY:b:t=po.	!	!	!
8D\L	.	.	8d\ 8a	2.ryy	(16dd\LL	.	(16ff#\LL	p	4D\	-bis	4d\	-bis	p	4a\	-bis	4ff#\	-bis	4D\	.	4dd\	.	2.ryy	4ff#\	p	2.dd\	p	2.ff#\	p	2.ryy
.	.	.	.	.	16ff#\	.	16ddd\	.	.	.	.	.	.	.	.	.	.	.	.	.	.	.	.	.	.	.	.	.	.
8D\	.	.	4d\ 4a	.	16dd\	.	16ff#\	.	.	.	.	.	.	.	.	.	.	.	.	.	.	.	.	.	.	.	.	.	.
.	.	.	.	.	16ff#\	.	16ddd\	.	.	.	.	.	.	.	.	.	.	.	.	.	.	.	.	.	.	.	.	.	.
!	!	!	!	!	!	!	!	!	!	!	!	!	!	!	!	!	!	!	!LO:DY:b:t=po&colon;	!	!	!	!	!	!	!	!	!	!
!	!	!	!	!	!	!	!	!	!	!	!	!	!	!	!	!	!	!	!	!	!LO:DY:b:t=po	!	!	!	!	!	!	!	!
8D\	.	.	.	.	16dd\	.	16ff#\	.	4d\	mi-	4d\	mi-	.	4a\	.	4ff#\	mi-	8D\L	p	8dd\L	p	.	8ff#\L	.	.	.	.	.	.
.	.	.	.	.	16ff#\	.	16ddd\	.	.	.	.	.	.	.	.	.	.	.	.	.	.	.	.	.	.	.	.	.	.
8D\	.	.	4d\ 4a	.	16dd\	.	16ff#\	.	.	.	.	.	.	.	.	.	.	8D\J	.	8dd\J	.	.	8ff#\J	.	.	.	.	.	.
!	!	!	!	!	!	!LO:DY:b:t=po	!	!	!	!	!	!	!	!	!	!	!	!	!	!	!	!	!	!	!	!	!	!	!
.	.	.	.	.	16ff#\	p	16ddd\	.	.	.	.	.	.	.	.	.	.	.	.	.	.	.	.	.	.	.	.	.	.
8D\	.	.	.	.	16dd\	.	16ff#\	.	4d\	-se-	4d\	-se-	.	4a\	Mis-	4ff#\	-se-	4D\	.	4dd\	.	.	4ff#\	.	.	.	.	.	.
.	.	.	.	.	16ff#\	.	16ddd\	.	.	.	.	.	.	.	.	.	.	.	.	.	.	.	.	.	.	.	.	.	.
8D\J	.	.	8d\ 8a	.	16dd\	.	16ff#\	.	.	.	.	.	.	.	.	.	.	.	.	.	.	.	.	.	.	.	.	.	.
.	.	.	.	.	16ff#\JJ)	.	16ddd\JJ)	.	.	.	.	.	.	.	.	.	.	.	.	.	.	.	.	.	.	.	.	.	.
!	!	!	!	!	!LO:LB:g=original	!	!	!	!	!	!	!	!	!	!	!	!	!	!	!	!	!	!	!	!	!	!	!	!
=13	=13	=13	=13	=13	=13	=13	=13	=13	=13	=13	=13	=13	=13	=13	=13	=13	=13	=13	=13	=13	=13	=13	=13	=13	=13	=13	=13	=13	=13
8B\L	.	.	8d\ 8b	2.ryy	(16dd\LL	.	16ff#\LL	.	2B\	-re-	2d\	-re-	.	2a\	-re-	2ff#\	-re-	4D\	.	4dd\	.	2.ryy	4ff#\	.	2.dd\	.	2.ff#\	.	2.ryy
.	.	.	.	.	16ff#\	.	16ddd\	.	.	.	.	.	.	.	.	.	.	.	.	.	.	.	.	.	.	.	.	.	.
8B\	.	.	4d\ 4b	.	16dd\	.	16ff#\	.	.	.	.	.	.	.	.	.	.	.	.	.	.	.	.	.	.	.	.	.	.
.	.	.	.	.	16ff#\	.	16ddd\	.	.	.	.	.	.	.	.	.	.	.	.	.	.	.	.	.	.	.	.	.	.
8B\	.	.	.	.	16dd\	.	16ff#\	.	.	.	.	.	.	.	.	.	.	4r	.	4r	.	.	4r	.	.	.	.	.	.
.	.	.	.	.	16ff#\	.	16ddd\	.	.	.	.	.	.	.	.	.	.	.	.	.	.	.	.	.	.	.	.	.	.
8B\	.	.	4d\ 4b	.	16dd\	.	16ff#\	.	.	.	.	.	.	.	.	.	.	.	.	.	.	.	.	.	.	.	.	.	.
.	.	.	.	.	16ff#\	.	16ddd\	.	.	.	.	.	.	.	.	.	.	.	.	.	.	.	.	.	.	.	.	.	.
8B\	.	.	.	.	16dd\	.	16ff#\	.	4B\	-re	4d\	-re	.	4a\	-re	4ff#\	-re	4r	.	4dd\	.	.	4ff#\	.	.	.	.	.	.
.	.	.	.	.	16ff#\	.	16ddd\	.	.	.	.	.	.	.	.	.	.	.	.	.	.	.	.	.	.	.	.	.	.
8B\J	.	.	8d\ 8b	.	16dd\	.	16ff#\	.	.	.	.	.	.	.	.	.	.	.	.	.	.	.	.	.	.	.	.	.	.
.	.	.	.	.	16ff#\JJ)	.	16ddd\JJ	.	.	.	.	.	.	.	.	.	.	.	.	.	.	.	.	.	.	.	.	.	.
*Xtremolo	*	*	*	*	*	*	*Xtremolo	*	*	*	*	*	*	*	*	*	*	*	*	*	*	*	*	*	*	*	*	*	*
!	!	!	!	!	!	!	!	!	!LO:LB:g=original	!	!	!	!	!	!	!	!	!	!	!	!	!	!	!	!	!	!	!	!
!	!	!	!	!	!	!	!	!	!	!	!	!	!	!	!	!	!	!	!	!	!	!	!LO:LB:g=original	!	!	!	!	!	!
=14	=14	=14	=14	=14	=14	=14	=14	=14	=14	=14	=14	=14	=14	=14	=14	=14	=14	=14	=14	=14	=14	=14	=14	=14	=14	=14	=14	=14	=14
8G\L	.	.	8b\	2.ryy	16gg\LL	.	16eee\LL	.	4G\	no-	4e\	no-	.	4b\	no-	4gg\	no-	4r	.	4r	.	2.ryy	4r	.	4ee\	.	4gg\	.	2.ryy
.	.	.	.	.	16gg\	.	16eee\	.	.	.	.	.	.	.	.	.	.	.	.	.	.	.	.	.	.	.	.	.	.
8G\	.	.	4a\	.	16gg\	.	16eee\	.	.	.	.	.	.	.	.	.	.	.	.	.	.	.	.	.	.	.	.	.	.
.	.	.	.	.	16gg\JJ	.	16eee\JJ	.	.	.	.	.	.	.	.	.	.	.	.	.	.	.	.	.	.	.	.	.	.
*	*	*	*	*	*	*	*tremolo	*	*	*	*	*	*	*	*	*	*	*	*	*	*	*	*	*	*	*	*	*	*
8A\	.	.	.	.	16ff#\LL	.	16ddd\LL	.	4A\	.	4d\	.	.	2a\	.	4ff#\	.	4AA/	.	4dd\	.	.	4ff#\	.	4dd\	.	4ff#\	.	.
.	.	.	.	.	16ff#\	.	16ddd\	.	.	.	.	.	.	.	.	.	.	.	.	.	.	.	.	.	.	.	.	.	.
8A\	.	.	4a\	.	16ff#\	.	16ddd\	.	.	.	.	.	.	.	.	.	.	.	.	.	.	.	.	.	.	.	.	.	.
.	.	.	.	.	16ff#\JJ	.	16ddd\JJ	.	.	.	.	.	.	.	.	.	.	.	.	.	.	.	.	.	.	.	.	.	.
8AA/	.	.	.	.	16ee\LL	.	16ccc#\LL	.	4AA/	-bis	4c#\	.	.	.	.	4ee\	.	4AA/	.	4a/	.	.	4ee\	.	4cc#\	.	4ee\	.	.
.	.	.	.	.	16ee\	.	16ccc#\	.	.	.	.	.	.	.	.	.	.	.	.	.	.	.	.	.	.	.	.	.	.
8AA/J	.	.	8a\	.	16ee\	.	16ccc#\	.	.	.	.	.	.	.	.	.	.	.	.	.	.	.	.	.	.	.	.	.	.
.	.	.	.	.	16ee\JJ	.	16ccc#\JJ	.	.	.	.	.	.	.	.	.	.	.	.	.	.	.	.	.	.	.	.	.	.
*	*	*	*	*	*	*	*Xtremolo	*	*	*	*	*	*	*	*	*	*	*	*	*	*	*	*	*	*	*	*	*	*
*	*	*	*	*	*Xtremolo	*	*	*	*	*	*	*	*	*	*	*	*	*	*	*	*	*	*	*	*	*	*	*	*
!LO:LB:g=original	!	!	!	!	!	!	!	!	!	!	!	!	!	!	!	!	!	!	!	!LO:LB:g=original	!	!	!	!	!	!	!	!	!
=15	=15	=15	=15	=15	=15	=15	=15	=15	=15	=15	=15	=15	=15	=15	=15	=15	=15	=15	=15	=15	=15	=15	=15	=15	=15	=15	=15	=15	=15
!	!	!	!	!	!	!	!	!LO:DY:b:t=for	!	!	!	!	!	!	!	!	!	!	!	!	!	!	!	!	!	!	!	!	!
!	!	!	!	!	!	!	!	!	!	!	!	!	!	!	!	!	!	!	!	!	!	!	!	!	!	!LO:DY:b:t=for	!	!	!
!	!	!	!	!	!	!	!	!	!	!	!	!	!	!	!	!	!	!	!LO:DY:b:t=for	!	!LO:DY:b:t=for	!	!	!	!	!	!	!	!
4D\	.	.	(8f#\L	2.ryy	4d/ 4a 4ff#	.	4a\ 4ddd	f	4D\	.	4d\	-bis	.	4a\	-bis	4ff#\	-bis	4D\	f	4f#/	f	2.ryy	4dd\	.	2dd\	f	2ff#\	f	2.ryy
.	.	.	8a\)	.	.	.	.	.	.	.	.	.	.	.	.	.	.	.	.	.	.	.	.	.	.	.	.	.	.
4r	.	.	8f#\	.	4d/ 4a 4ff#	.	4a\ 4ddd	.	4r	.	4r	.	.	4r	.	4r	.	4r	.	4r	.	.	4r	.	.	.	.	.	.
.	.	.	(8a\	.	.	.	.	.	.	.	.	.	.	.	.	.	.	.	.	.	.	.	.	.	.	.	.	.	.
!	!	!	!	!	!	!LO:DY:b:t=for	!	!	!	!	!	!	!	!	!	!	!	!	!	!	!	!	!	!	!	!	!	!	!
4AA/	.	.	(8g\)	.	4a/ 4ee	f	4a\ 4ccc#	.	4AA/	no-	4c#\	no-	.	4g\	no	4ee\	no-	4AA/	.	4a/	.	.	4ee\	.	4cc#\	.	4ee\	.	.
.	.	.	8a\J)	.	.	.	.	.	.	.	.	.	.	.	.	.	.	.	.	.	.	.	.	.	.	.	.	.	.
!	!	!	!	!	!	!	!	!	!	!	!LO:LB:g=original	!	!	!	!	!	!	!	!	!	!	!	!	!	!	!	!	!	!
!	!	!	!	!	!	!	!	!	!	!	!	!	!	!	!	!	!	!	!	!	!	!	!	!	!LO:LB:g=original	!	!	!	!
=16	=16	=16	=16	=16	=16	=16	=16	=16	=16	=16	=16	=16	=16	=16	=16	=16	=16	=16	=16	=16	=16	=16	=16	=16	=16	=16	=16	=16	=16
4D\	.	.	(8f#\L	2.ryy	4d/ 4a 4ff#	.	4a\ 4ddd	.	4D\	-bis	4d\	-bis	.	4a\	.	4ff#\	-bis	4D\	.	4dd\	.	2.ryy	4ff#\	.	2dd\	.	2ff#\	.	2.ryy
.	.	.	8a\)	.	.	.	.	.	.	.	.	.	.	.	.	.	.	.	.	.	.	.	.	.	.	.	.	.	.
4r	.	.	(8f#\	.	4d/ 4a 4ff#	.	4a\ 4ddd	.	4r	.	4r	.	.	4r	.	4r	.	4r	.	4r	.	.	4r	.	.	.	.	.	.
.	.	.	8a\)	.	.	.	.	.	.	.	.	.	.	.	.	.	.	.	.	.	.	.	.	.	.	.	.	.	.
*	*	*	*	*	*	*	*	*	*	*ij	*	*	*	*	*	*	*ij	*	*	*	*	*	*	*	*	*	*	*	*
4AA/	.	.	(8g\	.	4a/ 4ee	.	4a\ 4ccc#	.	4AA/	no-	4c#\	no-	.	4a\	no-	4ee\	no-	4AA/	.	4a/	.	.	4ee\	.	4cc#\	.	4ee\	.	.
.	.	.	8a\J)	.	.	.	.	.	.	.	.	.	.	.	.	.	.	.	.	.	.	.	.	.	.	.	.	.	.
!	!	!	!	!	!	!	!LO:LB:g=original	!	!	!	!	!	!	!	!	!	!	!	!	!	!	!	!	!	!	!	!	!	!
=17	=17	=17	=17	=17	=17	=17	=17	=17	=17	=17	=17	=17	=17	=17	=17	=17	=17	=17	=17	=17	=17	=17	=17	=17	=17	=17	=17	=17	=17
*	*	*	*	*	*^	*	*^	*	*	*	*	*	*	*	*	*	*	*	*	*	*	*	*	*	*	*	*	*	*
4DD/ 4D	.	.	4d\ 4a	2.ryy	4d/ 4a 4ff#	4ff#\yy	.	4dd\ 4ddd	4aa\yy	.	4D\	-bis	4d\	-bis	.	4g\	-bis	4ff#\	-bis	4D\	.	4dd\	.	2.ryy	4ff#\	.	4dd\	.	4ff#\	.	2.ryy
*	*	*	*	*	*	*	*	*	*	*	*	*Xij	*	*	*	*	*	*	*Xij	*	*	*	*	*	*	*	*	*	*	*	*
4r	.	.	4r	.	4raa	8ff#/L	.	4raa	8aa/L	.	4r	.	4r	.	.	4r	.	4r	.	4r	.	8ff#\L	.	.	8aa\L	.	8ff#`\L	.	8aa`\L	.	.
.	.	.	.	.	.	8ff#/	.	.	8aa/	.	.	.	.	.	.	.	.	.	.	.	.	8ff#\	.	.	8aa\	.	8ff#`\	.	8aa`\	.	.
!	!	!	!	!	!	!	!	!LO:TX:a:t=Oboi	!	!	!	!	!	!	!	!	!	!	!	!	!	!	!	!	!	!	!	!	!	!	!
4r	.	.	4r	.	4raa	8ff#/	.	4raa	8aa/	.	4r	.	4r	.	.	4r	.	4r	.	4r	.	8ff#\	.	.	8aa\	.	8ff#`\	.	8aa`\	.	.
.	.	.	.	.	.	[8ff#/J	.	.	[8aa/J	.	.	.	.	.	.	.	.	.	.	.	.	8ff#\J	.	.	8aa\J	.	8ff#`\J	.	8aa`\J	.	.
!	!	!	!LO:LB:g=original	!	!	!	!	!	!	!	!	!	!	!	!	!LO:LB:g=original	!	!	!	!	!	!	!	!	!	!	!	!	!	!	!
=18	=18	=18	=18	=18	=18	=18	=18	=18	=18	=18	=18	=18	=18	=18	=18	=18	=18	=18	=18	=18	=18	=18	=18	=18	=18	=18	=18	=18	=18	=18	=18
4DD/ 4D	.	.	4d\ 4a	2.ryy	4d/ 4a 4ff#	4ff#/]	.	4dd\ 4ddd	4aa\]	.	2.r	.	2.r	.	.	2.r	.	2.r	.	4D\	.	4ff#\	.	2.ryy	4aa\	.	4ff#\	.	4aa\	.	2.ryy
*	*	*	*	*	*	*	*	*	*	*	*	*	*	*	*	*	*	*	*	*	*	*	*	*	*	*	*	*	*tremolo	*	*
!	!	!	!	!	!	!	!	!	!	!	!	!	!	!	!	!	!	!	!	!	!	!	!	!	!	!	!	!	!LO:TX:t=P:problem:nad nutą cztery znaki artykulacyjne dla tremolowanych wartości	!	!
4r	.	.	4r	.	4raa	8dd/L	.	4raa	8ff#/L	.	.	.	.	.	.	.	.	.	.	4r	.	8dd\L	.	.	8ff#\L	.	8dd'\L	.	8ff#`\L	.	.
.	.	.	.	.	.	8dd/	.	.	8ff#/	.	.	.	.	.	.	.	.	.	.	.	.	8dd\	.	.	8ff#\	.	8dd'\	.	8ff#`\	.	.
4r	.	.	4r	.	4raa	8dd/	.	4raa	8ff#/	.	.	.	.	.	.	.	.	.	.	4r	.	8dd\	.	.	8ff#\	.	8dd'\	.	8ff#`\	.	.
.	.	.	.	.	.	[8dd/J	.	.	[8ff#/J	.	.	.	.	.	.	.	.	.	.	.	.	8dd\J	.	.	8ff#\J	.	8dd'\J	.	8ff#`\J	.	.
=19	=19	=19	=19	=19	=19	=19	=19	=19	=19	=19	=19	=19	=19	=19	=19	=19	=19	=19	=19	=19	=19	=19	=19	=19	=19	=19	=19	=19	=19	=19	=19
4DD/ 4D	.	.	4d\ 4a	2.ryy	4d/ 4a 4ff#	4dd\]	.	4dd\ 4ddd	4ff#\]	.	2.r	.	2.r	.	.	2.r	.	2.r	.	4D\	.	4dd\	.	2.ryy	4ff#\	.	4dd\	.	4ff#\	.	2.ryy
!	!	!	!	!	!	!	!	!	!	!	!	!	!	!	!	!	!	!	!	!	!	!	!	!	!	!	!	!	!LO:TX:t=P:problem:nad nutą cztery znaki artykulacyjne dla tremolowanych wartości	!	!
4r	.	.	4r	.	4raa	8a/L	.	4raa	8dd/L	.	.	.	.	.	.	.	.	.	.	4r	.	8a/L	.	.	8dd\L	.	8a'/L	.	8dd`\L	.	.
.	.	.	.	.	.	8a/	.	.	8dd/	.	.	.	.	.	.	.	.	.	.	.	.	8a/	.	.	8dd\	.	8a'/	.	8dd`\	.	.
4r	.	.	4r	.	4raa	8a/	.	4raa	8dd/	.	.	.	.	.	.	.	.	.	.	4r	.	8a/	.	.	8dd\	.	8a'/	.	8dd`\	.	.
.	.	.	.	.	.	[8a/J	.	.	[8dd/J	.	.	.	.	.	.	.	.	.	.	.	.	8a/J	.	.	8dd\J	.	8a'/J	.	8dd`\J	.	.
!	!	!	!	!	!	!	!	!	!	!	!	!	!	!	!	!	!	!	!	!LO:LB:g=original	!	!	!	!	!	!	!	!	!	!	!
=20	=20	=20	=20	=20	=20	=20	=20	=20	=20	=20	=20	=20	=20	=20	=20	=20	=20	=20	=20	=20	=20	=20	=20	=20	=20	=20	=20	=20	=20	=20	=20
4DD/ 4D	.	.	4d\ 4a	2.ryy	4d/ 4a 4ff#	4a/]	.	4dd\ 4ddd	4dd\]	.	2.r	.	2.r	.	.	2.r	.	2.r	.	4D\	.	4a/	.	2.ryy	4dd\	.	4a/	.	4dd\	.	2.ryy
!	!	!	!	!	!	!	!	!	!	!	!	!	!	!	!	!	!	!	!	!	!	!	!	!	!	!	!	!	!LO:TX:t=P:problem:pod nutą trzy znaki artykulacyjne dla tremolowanych wartości	!	!
4r	.	.	4r	.	4raa	8f#/L	.	4raa	8a\L	.	.	.	.	.	.	.	.	.	.	4r	.	8f#/L	.	.	8a/L	.	8f#'/L	.	8a`/L	.	.
.	.	.	.	.	.	8f#/	.	.	8a\	.	.	.	.	.	.	.	.	.	.	.	.	8f#/	.	.	8a/	.	8f#'/	.	8a`/	.	.
4r	.	.	4r	.	4raa	8f#/	.	4raa	8a\	.	.	.	.	.	.	.	.	.	.	4r	.	8f#/	.	.	8a/	.	8f#'/	.	8a`/	.	.
.	.	.	.	.	.	8f#/J	.	.	8a\J	.	.	.	.	.	.	.	.	.	.	.	.	8f#/J	.	.	8a/J	.	8f#'/J	.	8a`/J	.	.
*	*	*	*	*	*	*	*	*	*	*	*	*	*	*	*	*	*	*	*	*	*	*	*	*	*	*	*	*	*Xtremolo	*	*
=21	=21	=21	=21	=21	=21	=21	=21	=21	=21	=21	=21	=21	=21	=21	=21	=21	=21	=21	=21	=21	=21	=21	=21	=21	=21	=21	=21	=21	=21	=21	=21
4r	.	.	4a\	2.ryy	(4ff#\	4f#\	.	4aa\	4a\	.	2.r	.	2.r	.	.	2.r	.	2.r	.	4r	.	4f#/	.	2.ryy	4a/	.	4f#/	.	(4a/	.	2.ryy
4D\	.	.	4f#\	.	4dd\)	4d\	.	4ff#\	4f#\	.	.	.	.	.	.	.	.	.	.	4D\	.	4d/	.	.	4f#/	.	4d/	.	4f#'/)	.	.
4D\	.	.	4f#\	.	4dd`\	4d\	.	4ff#\	4f#\	.	.	.	.	.	.	.	.	.	.	4D\	.	4d/	.	.	4f#/	.	4d/	.	4f#'/	.	.
=22	=22	=22	=22	=22	=22	=22	=22	=22	=22	=22	=22	=22	=22	=22	=22	=22	=22	=22	=22	=22	=22	=22	=22	=22	=22	=22	=22	=22	=22	=22	=22
4D\	.	.	4f#\	2.ryy	4dd`\	4d\	.	4ff#\	4f#\	.	2.r	.	2.r	.	.	2.r	.	2.r	.	4D\	.	4d/	.	2.ryy	4f#/	.	4d/	.	4f#/	.	2.ryy
!	!	!	!	!	!	!	!	!	!	!	!	!	!	!	!	!	!	!	!	!	!	!	!LO:DY:b:t=po	!	!	!	!	!	!	!	!
4r	.	.	4r	.	4raa	2d/yy	.	4raa	2f#/yy	.	.	.	.	.	.	.	.	.	.	4r	.	4r	p	.	4r	.	4r	.	4r	.	.
4r	.	.	4r	.	4raa	.	.	4raa	.	.	.	.	.	.	.	.	.	.	.	4r	.	4r	.	.	4r	.	4r	.	4r	.	.
*	*	*	*	*	*v	*v	*	*	*	*	*	*	*	*	*	*	*	*	*	*	*	*	*	*	*	*	*	*	*	*	*
*	*	*	*	*	*	*	*v	*v	*	*	*	*	*	*	*	*	*	*	*	*	*	*	*	*	*	*	*	*	*	*
=23	=23	=23	=23	=23	=23	=23	=23	=23	=23	=23	=23	=23	=23	=23	=23	=23	=23	=23	=23	=23	=23	=23	=23	=23	=23	=23	=23	=23	=23
8qqC#/	.	.	8qqc#/	.	8qqd/	.	8qqc#/	.	.	.	.	.	.	.	.	.	.	.	.	.	.	.	.	.	.	.	.	.	.
!	!	!LO:DY:b:t=po&colon;	!	!	!	!	!	!	!	!	!	!	!	!	!	!	!	!	!	!	!	!	!	!	!	!	!	!	!
4D\	.	p	4d\	2.ryy	4d/	.	4d/	.	4D\	no-	4D/	no-	.	4d\	no-	4d/	no-	4D\	.	4d/	.	2.ryy	4d/	.	4d/	.	4d/	.	2.ryy
4r	.	.	4r	.	4r	.	4r	.	4r	.	4r	.	.	4r	.	4r	.	4r	.	4r	.	.	4r	.	4r	.	4r	.	.
4r	.	.	4r	.	4r	.	4r	.	4r	.	4r	.	.	4r	.	4r	.	4r	.	4r	.	.	4r	.	4r	.	4r	.	.
!	!	!	!	!	!LO:LB:g=original	!	!	!	!	!	!	!	!	!	!	!	!	!	!	!	!	!	!	!	!	!	!	!	!
!	!	!	!	!	!	!	!	!	!	!	!	!	!	!	!	!	!	!	!	!	!	!	!	!	!	!	!LO:LB:g=original	!	!
=24	=24	=24	=24	=24	=24	=24	=24	=24	=24	=24	=24	=24	=24	=24	=24	=24	=24	=24	=24	=24	=24	=24	=24	=24	=24	=24	=24	=24	=24
*	*	*	*	*	*	*	*	*	*	*	*	*	*	*	*	*	*	*2\right	*	*	*	*	*	*	*	*	*	*	*
8qqC#/	.	.	8qqc#/	.	8qqd/	.	8qqd/	.	.	.	.	.	.	.	.	.	.	.	.	.	.	.	.	.	.	.	.	.	.
2D\	.	.	2d\	2.ryy	2d/	.	2d/	.	2D\	-bis.	2D/	-bis.	.	2d\	-bis	2d/	-bis	2D\	.	2d/	.	2.ryy	2d/	.	2d/	.	2d/	.	2.ryy
!LO:TX:b:i:rj:t=Fine &colon;/&colon;	!	!	!LO:TX:b:i:rj:t=fine &colon;/&colon;	!	!	!	!LO:TX:b:i:rj:t=fine &colon;/&colon;	!	!	!	!	!	!	!	!	!LO:TX:b:i:rj:t=Fine&colon;/&colon;	!	!LO:TX:b:i:rj:t=Fine&colon;/&colon;	!	!LO:TX:b:i:rj:t=fine &colon;/&colon;	!	!	!	!	!LO:TX:b:i:rj:t=Fine&colon;/&colon;	!	!	!	!
4r	.	.	4r	.	4r	.	4r	.	4r	.	4r	.	.	4r	.	4r	.	4r	.	4r	.	.	4r	.	4r	.	4r	.	.
==	==	==	==	==	==	==	==	==	==	==	==	==	==	==	==	==	==	==	==	==	==	==	==	==	==	==	==	==	==
*-	*-	*-	*-	*-	*-	*-	*-	*-	*-	*-	*-	*-	*-	*-	*-	*-	*-	*-	*-	*-	*-	*-	*-	*-	*-	*-	*-	*-	*-
!!!system-decoration: [(s1,s2,s3)][(s4,s5,s6)][(s7)][(s8,s9,s10,s11)][(s12,s13,s14,s15)]s16
!!!ENC: Mateusz Solarz
!!!END: 2020-10-20
!!!ENC: Natalia Wrzos
!!!END: 2022-04-11
